static/img/kroki/574e0db37ea414a52b22ffe1dc20fdcc.svg

<?xml version="1.0" encoding="us-ascii" standalone="no"?><svg xmlns="http://www.w3.org/2000/svg" xmlns:xlink="http://www.w3.org/1999/xlink" contentStyleType="text/css" height="535px" preserveAspectRatio="none" style="width:358px;height:535px;" version="1.1" viewBox="0 0 358 535" width="358px" zoomAndPan="magnify"><defs/><g><!--class phantom_resource--><g id="elem_phantom_resource"><rect codeLine="23" fill="#3D176E" height="39.7891" id="phantom_resource" rx="2.5" ry="2.5" style="stroke:#000D19;stroke-width:0.5;" width="198" x="153.5" y="167.79"/><ellipse cx="168.5" cy="187.6845" fill="#ADD1B2" rx="11" ry="11" style="stroke:#181818;stroke-width:1.0;"/><path d="M171.4688,193.3252 Q170.8906,193.622 170.25,193.7627 Q169.6094,193.9189 168.9063,193.9189 Q166.4063,193.9189 165.0781,192.2783 Q163.7656,190.622 163.7656,187.497 Q163.7656,184.372 165.0781,182.7158 Q166.4063,181.0595 168.9063,181.0595 Q169.6094,181.0595 170.25,181.2158 Q170.9063,181.372 171.4688,181.6689 L171.4688,184.3877 Q170.8438,183.8095 170.25,183.5439 Q169.6563,183.2627 169.0313,183.2627 Q167.6875,183.2627 167,184.3408 Q166.3125,185.4033 166.3125,187.497 Q166.3125,189.5908 167,190.6689 Q167.6875,191.7314 169.0313,191.7314 Q169.6563,191.7314 170.25,191.4658 Q170.8438,191.1845 171.4688,190.6064 L171.4688,193.3252 Z " fill="#000000"/><text fill="#D9B8FF" font-family="Helvetica" font-size="17" lengthAdjust="spacing" textLength="156" x="187.5" y="193.5698">phantom_resource</text></g><!--class region--><g id="elem_region"><rect codeLine="26" fill="#3D176E" height="39.7891" id="region" rx="2.5" ry="2.5" style="stroke:#000D19;stroke-width:0.5;" width="95" x="205" y="328.58"/><ellipse cx="220" cy="348.4745" fill="#ADD1B2" rx="11" ry="11" style="stroke:#181818;stroke-width:1.0;"/><path d="M222.9688,354.1152 Q222.3906,354.412 221.75,354.5527 Q221.1094,354.7089 220.4063,354.7089 Q217.9063,354.7089 216.5781,353.0683 Q215.2656,351.412 215.2656,348.287 Q215.2656,345.162 216.5781,343.5058 Q217.9063,341.8495 220.4063,341.8495 Q221.1094,341.8495 221.75,342.0058 Q222.4063,342.162 222.9688,342.4589 L222.9688,345.1777 Q222.3438,344.5995 221.75,344.3339 Q221.1563,344.0527 220.5313,344.0527 Q219.1875,344.0527 218.5,345.1308 Q217.8125,346.1933 217.8125,348.287 Q217.8125,350.3808 218.5,351.4589 Q219.1875,352.5214 220.5313,352.5214 Q221.1563,352.5214 221.75,352.2558 Q222.3438,351.9745 222.9688,351.3964 L222.9688,354.1152 Z " fill="#000000"/><text fill="#D9B8FF" font-family="Helvetica" font-size="17" lengthAdjust="spacing" textLength="53" x="239" y="354.3598">region</text></g><!--class resource--><g id="elem_resource"><rect codeLine="29" fill="#3D176E" height="39.7891" id="resource" rx="2.5" ry="2.5" style="stroke:#000D19;stroke-width:0.5;" width="113" x="196" y="7"/><ellipse cx="211" cy="26.8945" fill="#ADD1B2" rx="11" ry="11" style="stroke:#181818;stroke-width:1.0;"/><path d="M213.9688,32.5352 Q213.3906,32.832 212.75,32.9727 Q212.1094,33.1289 211.4063,33.1289 Q208.9063,33.1289 207.5781,31.4883 Q206.2656,29.832 206.2656,26.707 Q206.2656,23.582 207.5781,21.9258 Q208.9063,20.2695 211.4063,20.2695 Q212.1094,20.2695 212.75,20.4258 Q213.4063,20.582 213.9688,20.8789 L213.9688,23.5977 Q213.3438,23.0195 212.75,22.7539 Q212.1563,22.4727 211.5313,22.4727 Q210.1875,22.4727 209.5,23.5508 Q208.8125,24.6133 208.8125,26.707 Q208.8125,28.8008 209.5,29.8789 Q210.1875,30.9414 211.5313,30.9414 Q212.1563,30.9414 212.75,30.6758 Q213.3438,30.3945 213.9688,29.8164 L213.9688,32.5352 Z " fill="#000000"/><text fill="#D9B8FF" font-family="Helvetica" font-size="17" lengthAdjust="spacing" textLength="71" x="230" y="32.7798">resource</text></g><!--class slack_region--><g id="elem_slack_region"><rect codeLine="32" fill="#3D176E" height="39.7891" id="slack_region" rx="2.5" ry="2.5" style="stroke:#000D19;stroke-width:0.5;" width="145" x="51" y="489.37"/><ellipse cx="66" cy="509.2645" fill="#ADD1B2" rx="11" ry="11" style="stroke:#181818;stroke-width:1.0;"/><path d="M68.9688,514.9052 Q68.3906,515.202 67.75,515.3427 Q67.1094,515.4989 66.4063,515.4989 Q63.9063,515.4989 62.5781,513.8583 Q61.2656,512.202 61.2656,509.077 Q61.2656,505.952 62.5781,504.2958 Q63.9063,502.6395 66.4063,502.6395 Q67.1094,502.6395 67.75,502.7958 Q68.4063,502.952 68.9688,503.2489 L68.9688,505.9677 Q68.3438,505.3895 67.75,505.1239 Q67.1563,504.8427 66.5313,504.8427 Q65.1875,504.8427 64.5,505.9208 Q63.8125,506.9833 63.8125,509.077 Q63.8125,511.1708 64.5,512.2489 Q65.1875,513.3114 66.5313,513.3114 Q67.1563,513.3114 67.75,513.0458 Q68.3438,512.7645 68.9688,512.1864 L68.9688,514.9052 Z " fill="#000000"/><text fill="#D9B8FF" font-family="Helvetica" font-size="17" lengthAdjust="spacing" textLength="103" x="85" y="515.1498">slack_region</text></g><!--class slack_resource--><g id="elem_slack_resource"><rect codeLine="35" fill="#3D176E" height="39.7891" id="slack_resource" rx="2.5" ry="2.5" style="stroke:#000D19;stroke-width:0.5;" width="163" x="7" y="328.58"/><ellipse cx="22" cy="348.4745" fill="#ADD1B2" rx="11" ry="11" style="stroke:#181818;stroke-width:1.0;"/><path d="M24.9688,354.1152 Q24.3906,354.412 23.75,354.5527 Q23.1094,354.7089 22.4063,354.7089 Q19.9063,354.7089 18.5781,353.0683 Q17.2656,351.412 17.2656,348.287 Q17.2656,345.162 18.5781,343.5058 Q19.9063,341.8495 22.4063,341.8495 Q23.1094,341.8495 23.75,342.0058 Q24.4063,342.162 24.9688,342.4589 L24.9688,345.1777 Q24.3438,344.5995 23.75,344.3339 Q23.1563,344.0527 22.5313,344.0527 Q21.1875,344.0527 20.5,345.1308 Q19.8125,346.1933 19.8125,348.287 Q19.8125,350.3808 20.5,351.4589 Q21.1875,352.5214 22.5313,352.5214 Q23.1563,352.5214 23.75,352.2558 Q24.3438,351.9745 24.9688,351.3964 L24.9688,354.1152 Z " fill="#000000"/><text fill="#D9B8FF" font-family="Helvetica" font-size="17" lengthAdjust="spacing" textLength="121" x="41" y="354.3598">slack_resource</text></g><!--reverse link resource to phantom_resource--><g id="link_resource_phantom_resource"><path codeLine="38" d="M252.5,65.05 C252.5,95.57 252.5,136.9 252.5,167.47 " fill="none" id="resource-backto-phantom_resource" style="stroke:#FFAF37;stroke-width:2.0;"/><polygon fill="none" points="252.5,47.05,246.5,65.05,258.5,65.05,252.5,47.05" style="stroke:#FFAF37;stroke-width:2.0;"/></g><!--reverse link phantom_resource to region--><g id="link_phantom_resource_region"><path codeLine="39" d="M252.5,225.84 C252.5,256.36 252.5,297.69 252.5,328.25 " fill="none" id="phantom_resource-backto-region" style="stroke:#FFAF37;stroke-width:2.0;"/><polygon fill="none" points="252.5,207.84,246.5,225.84,258.5,225.84,252.5,207.84" style="stroke:#FFAF37;stroke-width:2.0;"/></g><!--reverse link region to slack_region--><g id="link_region_slack_region"><path codeLine="40" d="M225.5914,382.6017 C200.8014,413.1217 163.94,458.48 139.12,489.04 " fill="none" id="region-backto-slack_region" style="stroke:#FFAF37;stroke-width:2.0;"/><polygon fill="none" points="236.94,368.63,220.9342,378.8189,230.2486,386.3846,236.94,368.63" style="stroke:#FFAF37;stroke-width:2.0;"/></g><!--reverse link slack_resource to slack_region--><g id="link_slack_resource_slack_region"><path codeLine="41" d="M96.5961,386.2077 C103.3261,416.7277 112.53,458.48 119.26,489.04 " fill="none" id="slack_resource-backto-slack_region" style="stroke:#FFAF37;stroke-width:2.0;"/><polygon fill="none" points="92.72,368.63,90.7368,387.4997,102.4553,384.9157,92.72,368.63" style="stroke:#FFAF37;stroke-width:2.0;"/></g><!--SRC=[XP1BRuCm48Jl_XMMSaQ2HYr1wYL5gjfBL3MzHmQlmG9ij3QDqiT_RoWaSd0UHyzytfdTKdAWqBHsHnjeCa13J2LLov0rT8cejwckDTAP44pCuwdvh9Mz2QnO0_G5wa-mCcTJugEKUQN067hdM4yihmhKdUB3U8jCcRq5oZfKMZDZbjQYp3eBJXcUP0iXfkHqw6pEe_W1F4mZ1noHC0nvb4oHcr5NzpuIQ_a5D7AFjj8Ml9fUn3zrjMLFE2MzHG_-nOvlZ7Ef2dhlQEz39rI09_gwP5nlUrgmshWnnWA2jhiMKcyhI1PSn6VXrqimoVlJqRPaokfcWs1qXpdGRq9-Hm-Xa5gTAZvbwdt2ncSFkllZ-7hy2OB02oTUcu4RXfCnOz3SM3B9EaFy0G00]--></g></svg>

<svg xmlns="http://www.w3.org/2000/svg" width="358" height="535" viewBox="0 0 358 535"><rect width="198" height="39.789" x="153.5" y="167.79" fill="#3D176E" rx="2.5" ry="2.5" style="stroke:#000d19;stroke-width:.5"/><circle cx="168.5" cy="187.685" r="11" fill="#ADD1B2" style="stroke:#181818;stroke-width:1"/><path d="M171.469 193.325q-.578.297-1.219.438-.64.156-1.344.156-2.5 0-3.828-1.64-1.312-1.657-1.312-4.782t1.312-4.781q1.328-1.656 3.828-1.656.703 0 1.344.156.656.156 1.219.453v2.719q-.625-.578-1.219-.844-.594-.281-1.219-.281-1.344 0-2.031 1.078-.687 1.062-.687 3.156t.687 3.172q.688 1.062 2.031 1.062.625 0 1.219-.265.594-.281 1.219-.86z"/><text x="187.5" y="193.57" fill="#D9B8FF" font-family="Helvetica" font-size="17" textLength="156">phantom_resource</text><rect width="95" height="39.789" x="205" y="328.58" fill="#3D176E" rx="2.5" ry="2.5" style="stroke:#000d19;stroke-width:.5"/><circle cx="220" cy="348.474" r="11" fill="#ADD1B2" style="stroke:#181818;stroke-width:1"/><path d="M222.969 354.115q-.578.297-1.219.438-.64.156-1.344.156-2.5 0-3.828-1.64-1.312-1.657-1.312-4.782t1.312-4.781q1.328-1.656 3.828-1.656.703 0 1.344.156.656.156 1.219.453v2.719q-.625-.579-1.219-.844-.594-.281-1.219-.281-1.344 0-2.031 1.078-.687 1.062-.687 3.156t.687 3.172q.688 1.062 2.031 1.062.625 0 1.219-.265.594-.281 1.219-.86z"/><text x="239" y="354.36" fill="#D9B8FF" font-family="Helvetica" font-size="17" textLength="53">region</text><rect width="113" height="39.789" x="196" y="7" fill="#3D176E" rx="2.5" ry="2.5" style="stroke:#000d19;stroke-width:.5"/><circle cx="211" cy="26.895" r="11" fill="#ADD1B2" style="stroke:#181818;stroke-width:1"/><path d="M213.969 32.535q-.578.297-1.219.438-.64.156-1.344.156-2.5 0-3.828-1.64-1.312-1.657-1.312-4.782t1.312-4.781q1.328-1.656 3.828-1.656.703 0 1.344.156.656.156 1.219.453v2.719q-.625-.578-1.219-.844-.594-.281-1.219-.281-1.344 0-2.031 1.078-.687 1.062-.687 3.156t.687 3.172q.688 1.062 2.031 1.062.625 0 1.219-.265.594-.281 1.219-.86z"/><text x="230" y="32.78" fill="#D9B8FF" font-family="Helvetica" font-size="17" textLength="71">resource</text><rect width="145" height="39.789" x="51" y="489.37" fill="#3D176E" rx="2.5" ry="2.5" style="stroke:#000d19;stroke-width:.5"/><circle cx="66" cy="509.264" r="11" fill="#ADD1B2" style="stroke:#181818;stroke-width:1"/><path d="M68.969 514.905q-.578.297-1.219.438-.64.156-1.344.156-2.5 0-3.828-1.64-1.312-1.657-1.312-4.782t1.312-4.781q1.328-1.656 3.828-1.656.703 0 1.344.156.656.156 1.219.453v2.719q-.625-.579-1.219-.844-.594-.281-1.219-.281-1.344 0-2.031 1.078-.687 1.062-.687 3.156t.687 3.172q.688 1.062 2.031 1.062.625 0 1.219-.265.594-.282 1.219-.86z"/><text x="85" y="515.15" fill="#D9B8FF" font-family="Helvetica" font-size="17" textLength="103">slack_region</text><rect width="163" height="39.789" x="7" y="328.58" fill="#3D176E" rx="2.5" ry="2.5" style="stroke:#000d19;stroke-width:.5"/><circle cx="22" cy="348.474" r="11" fill="#ADD1B2" style="stroke:#181818;stroke-width:1"/><path d="M24.969 354.115q-.578.297-1.219.438-.64.156-1.344.156-2.5 0-3.828-1.64-1.312-1.657-1.312-4.782t1.312-4.781q1.328-1.656 3.828-1.656.703 0 1.344.156.656.156 1.219.453v2.719q-.625-.579-1.219-.844-.594-.281-1.219-.281-1.343 0-2.031 1.078-.687 1.062-.687 3.156t.687 3.172q.688 1.062 2.031 1.062.625 0 1.219-.265.594-.281 1.219-.86z"/><text x="41" y="354.36" fill="#D9B8FF" font-family="Helvetica" font-size="17" textLength="121">slack_resource</text><path fill="none" d="M252.5 65.05v102.42m0-120.42-6 18h12zm0 178.79v102.41m0-120.41-6 18h12zm-26.909 174.762c-24.79 30.52-61.651 75.878-86.471 106.438m97.82-120.41-16.006 10.189 9.315 7.566zM96.596 386.208c6.73 30.52 15.934 72.272 22.664 102.832M92.72 368.63l-1.983 18.87 11.718-2.584z" style="stroke:#ffaf37;stroke-width:2"/></svg>
